X:21169 
T:RAKES OF WESTMEATH, The 
B:DMI.0416
Z:Nordberg/Black
R:slip jig
%Q:1/4=150
M:9/8
L:1/8
K:D
d3 dAG FED|d2d dAF G2E|ABc dAG FGA|cBc E2F G2E:|
d2g fdf ece|d2g fdf g2e|d2g fdf ece|cBc E2F G2E|
d2g fdf ece|d2g fdf g2e|afd gec d2B|cBc E2F G3|]

%%%

